lib/brands/icons/mysql.svg

<svg xmlns="http://www.w3.org/2000/svg" fill="none" aria-hidden="true" viewBox="0 0 48 48"><g id="mysql-Icon"><g id="Union"><path fill="#00546B" d="M34.4098 34.3483C35.683 33.8097 37.2011 33.6137 39.1598 33.6626C39.1048 33.2961 38.4048 32.8608 37.892 32.5419C37.7199 32.4348 37.5688 32.3409 37.4703 32.2671C36.6868 31.704 35.8543 31.1161 35.0219 30.6022C34.7537 30.4383 34.3676 30.3016 33.9961 30.17C33.7571 30.0854 33.5241 30.0028 33.3324 29.9166C33.1365 29.8368 32.8697 29.757 32.5817 29.6708C31.8975 29.4661 31.0935 29.2255 30.8349 28.8638C30.1692 27.9983 29.7045 26.9516 29.2406 25.9065C29.1926 25.7985 29.1447 25.6905 29.0966 25.5828C28.8537 25.0276 28.5835 24.4615 28.3118 23.8922C28.0083 23.2564 27.703 22.6166 27.4317 21.9835C27.3134 21.7257 27.2235 21.4819 27.135 21.2419C27.0219 20.9351 26.911 20.6345 26.7461 20.3186C24.9586 16.8663 22.3145 13.977 19.1069 11.9448C18.0539 11.2837 16.8788 10.6714 15.581 10.2553C15.1847 10.1365 14.7457 10.1174 14.3023 10.098C13.9239 10.0815 13.5424 10.0649 13.1816 9.98606H12.6673C12.3704 9.90359 12.1069 9.66554 11.8617 9.44409C11.7429 9.33681 11.6285 9.23343 11.5166 9.15352C10.7575 8.63941 9.99856 8.2964 9.0926 7.92929C8.77434 7.78244 7.86838 7.4396 7.55011 7.70902C7.35411 7.75802 7.25626 7.83144 7.20726 8.02729C7.01141 8.32114 7.18299 8.76183 7.30526 9.0311C7.54795 9.54886 7.85483 9.92764 8.1693 10.3158C8.33072 10.515 8.49415 10.7168 8.65192 10.941C8.72727 11.0474 8.80583 11.1561 8.88571 11.2667C9.2471 11.7671 9.6355 12.3048 9.87615 12.8262C10.2157 13.5578 10.4578 14.3311 10.699 15.1016C10.9098 15.7754 11.1201 16.447 11.3942 17.0866C11.6145 17.6009 11.9573 18.1884 12.2756 18.6537C12.3754 18.7898 12.5056 18.9125 12.6373 19.0367C12.8609 19.2475 13.0892 19.4627 13.1816 19.7555C13.4197 20.1523 12.9825 21.2886 12.7169 21.9791C12.6547 22.1407 12.602 22.2778 12.5695 22.3754C11.9328 24.383 12.0552 27.1743 12.7897 28.9126C12.816 28.9739 12.842 29.0361 12.8683 29.0988C13.1358 29.7378 13.423 30.4236 14.1364 30.6021C14.1586 30.58 14.1607 30.5729 14.1655 30.5694C14.1712 30.5653 14.1808 30.5666 14.2344 30.5531C14.2702 30.2717 14.3007 29.9924 14.3308 29.717C14.4445 28.6748 14.5521 27.6888 14.9199 26.856C15.0952 26.426 15.3843 26.0789 15.666 25.7405C15.8175 25.5587 15.9668 25.3794 16.0952 25.1911C16.2505 25.2843 16.3073 25.4958 16.3656 25.713C16.3992 25.8381 16.4333 25.9651 16.487 26.0725C16.5101 26.1276 16.5334 26.1831 16.5567 26.239C16.8553 26.952 17.1766 27.7191 17.5398 28.423C18.3478 29.99 19.2539 31.5079 20.2821 32.8792C20.6248 33.3689 21.1146 33.9076 21.5553 34.3483C21.6224 34.4069 21.6922 34.457 21.7611 34.5062C21.8934 34.601 22.0218 34.693 22.1185 34.8379H22.1675V34.9115C21.7026 34.741 21.3457 34.3744 20.9972 34.0165C20.7951 33.8089 20.5958 33.6042 20.38 33.4424C19.2782 32.6099 17.9561 31.3611 17.197 30.1614C16.9579 29.6465 16.705 29.1453 16.4486 28.6371C16.3637 28.4689 16.2785 28.2998 16.1932 28.1293C16.1932 28.1293 16.1933 28.1047 16.1932 28.0803C16.0996 28.205 16.0855 28.3298 16.0686 28.4799C16.059 28.5654 16.0484 28.6591 16.0217 28.7658C15.931 29.1149 15.886 29.4779 15.8426 29.8288C15.7336 30.7083 15.6341 31.5113 14.8465 31.8264C13.5978 32.3406 12.6673 30.9937 12.2756 30.3817C11.027 28.3495 10.6841 24.9217 11.5655 22.155C11.6337 21.942 11.6811 21.7142 11.7284 21.4871C11.8171 21.0614 11.9053 20.6379 12.1288 20.3186C12.0796 20.0244 11.9105 19.8719 11.7453 19.723C11.663 19.6488 11.5817 19.5755 11.5167 19.4861C11.1738 19.021 10.8801 18.4823 10.6107 17.9681C10.2192 17.2039 9.913 16.326 9.61624 15.4753C9.52316 15.2085 9.43102 14.9443 9.33746 14.6871C9.25388 14.4723 9.19944 14.2573 9.14573 14.0453C9.08927 13.8224 9.03361 13.6026 8.94577 13.3895C8.71431 12.888 8.33104 12.3866 7.97521 11.9211C7.8793 11.7956 7.78538 11.6727 7.69696 11.5531C7.60158 11.4163 7.47528 11.2576 7.3345 11.0807C6.64413 10.2135 5.60533 8.90853 6.15446 7.5866C7.18285 5.06471 10.7823 6.97433 12.1776 7.85587C12.3172 7.94558 12.4648 8.07582 12.6173 8.2103C12.8394 8.40624 13.0717 8.61117 13.304 8.71283C13.6101 8.72512 13.9163 8.74348 14.2224 8.76184C14.5284 8.78019 14.8344 8.79855 15.1404 8.81083C15.2406 8.83429 15.3403 8.85737 15.4393 8.88031C16.4775 9.12073 17.4473 9.3453 18.2744 9.81464C22.4857 12.2877 25.2281 14.8096 27.7499 18.9719C28.0923 19.5321 28.3259 20.122 28.5638 20.7227C28.7002 21.0672 28.838 21.4152 28.9986 21.7633C29.6107 23.1833 30.2965 24.6767 31.0063 26.0235C31.0956 26.202 31.1791 26.3863 31.2627 26.571C31.4773 27.0449 31.6931 27.5212 32.0103 27.9088C32.1243 28.0718 32.3795 28.1588 32.6239 28.2421C32.7468 28.2839 32.8669 28.3249 32.9651 28.3741C33.2818 28.5372 33.6248 28.6853 33.9706 28.8346C34.507 29.0661 35.05 29.3006 35.5116 29.5983C36.9316 30.4797 38.3029 31.5324 39.5515 32.6099C39.804 32.8358 40.0132 33.112 40.2221 33.3879C40.3983 33.6205 40.5742 33.8529 40.7758 34.0546V34.2748C40.3841 34.3973 39.9922 34.5197 39.6005 34.6177C39.1743 34.7272 38.7724 34.7702 38.3735 34.8128C37.9704 34.8559 37.5706 34.8986 37.1521 35.0094C37.0993 35.0245 37.0453 35.0401 36.9901 35.056C36.5082 35.195 35.946 35.3572 35.4626 35.4012C35.487 35.4256 35.5116 35.4501 35.5116 35.4501C35.7476 36.1218 36.751 36.6994 37.5734 37.1727C37.8601 37.3377 38.1248 37.49 38.3273 37.6293C39.2823 38.3148 40.1637 39.1473 40.8738 40.1021C40.9958 40.2242 41.1179 40.3402 41.24 40.4562C41.3628 40.5728 41.4856 40.6895 41.6083 40.8123C41.6912 40.9308 41.7455 41.0666 41.7989 41.2001C41.8557 41.3424 41.9116 41.4821 42 41.5958V41.6692C41.7858 41.5927 41.6385 41.4397 41.4925 41.2879C41.4048 41.1968 41.3175 41.1061 41.2165 41.0327C40.9858 40.8755 40.7553 40.7047 40.5247 40.534C40.2167 40.3059 39.9087 40.0778 39.6005 39.8819C39.1268 39.5826 38.6149 39.3469 38.1005 39.11C37.6047 38.8817 37.1065 38.6522 36.6378 38.3638C36.0993 38.021 35.585 37.6293 35.0709 37.2376C34.6056 36.8947 34.0916 36.2335 33.7976 35.7439C33.7235 35.6275 33.6769 35.502 33.632 35.3811C33.5731 35.2224 33.5171 35.0717 33.4058 34.9604C33.4424 34.6125 33.7804 34.5248 34.1021 34.4412C34.2105 34.413 34.3171 34.3853 34.4098 34.3483Z"/><path fill="#00546B" d="M13.1814 12.5079C13.4753 12.4345 13.769 12.3854 14.1853 12.3854C14.2629 12.463 14.3597 12.5291 14.4575 12.5958C14.6065 12.6975 14.7577 12.8007 14.8464 12.9486C14.9008 13.0248 14.9358 13.101 14.9709 13.1771C15.0147 13.2724 15.0585 13.3676 15.1402 13.4629C15.1402 14.0504 14.9689 14.4421 14.6259 14.6871C14.6259 14.6871 14.6015 14.7116 14.5771 14.7361C14.4792 14.5405 14.3876 14.3449 14.2959 14.1493C14.2039 13.9531 14.112 13.7569 14.0138 13.5608C13.9185 13.4273 13.8083 13.305 13.6978 13.1822C13.5244 12.9897 13.3501 12.7961 13.2304 12.5569H13.1814V12.5079Z"/></g></g></svg>

<svg xmlns="http://www.w3.org/2000/svg" fill="none" aria-hidden="true" viewBox="0 0 48 48"><g fill="#00546B"><path d="M34.41 34.348c1.273-.538 2.791-.734 4.75-.685-.055-.367-.755-.802-1.268-1.121a6.834 6.834 0 0 1-.422-.275 43.459 43.459 0 0 0-2.448-1.665c-.268-.164-.654-.3-1.026-.432a9.144 9.144 0 0 1-.664-.253 8.98 8.98 0 0 0-.75-.246c-.684-.205-1.489-.445-1.747-.807-.666-.866-1.13-1.912-1.594-2.957l-.144-.324c-.243-.555-.514-1.121-.785-1.69a52.388 52.388 0 0 1-.88-1.91c-.119-.257-.208-.501-.297-.741a7.573 7.573 0 0 0-.389-.923c-1.787-3.453-4.431-6.342-7.64-8.374-1.052-.661-2.227-1.274-3.525-1.69-.396-.119-.835-.138-1.279-.157-.378-.017-.76-.033-1.12-.112h-.515c-.297-.082-.56-.32-.805-.542-.12-.107-.233-.21-.345-.29-.76-.515-1.518-.858-2.424-1.225-.319-.147-1.225-.49-1.543-.22-.196.049-.294.122-.343.318-.196.294-.024.735.098 1.004.243.518.55.897.864 1.285.162.199.325.4.483.625l.234.326c.361.5.75 1.038.99 1.56.34.73.582 1.504.823 2.275.21.673.421 1.345.695 1.985.22.514.563 1.101.882 1.567.1.136.23.259.361.383.224.21.452.426.545.719.238.396-.2 1.533-.465 2.223-.062.162-.115.299-.148.396-.636 2.008-.514 4.8.22 6.538.027.06.053.123.08.186.267.639.554 1.325 1.267 1.503.023-.022.025-.03.03-.033.005-.004.015-.002.068-.016.036-.281.067-.56.097-.836.114-1.042.221-2.028.589-2.861.175-.43.464-.777.746-1.116a7.3 7.3 0 0 0 .43-.549c.154.093.211.305.27.522.033.125.067.252.121.36l.07.166c.298.713.62 1.48.983 2.184.808 1.567 1.714 3.085 2.742 4.456.343.49.833 1.029 1.273 1.47.067.058.137.108.206.157.132.095.26.187.358.332h.049v.073c-.465-.17-.822-.537-1.17-.895a5.531 5.531 0 0 0-.618-.574c-1.102-.832-2.424-2.08-3.183-3.28a55.123 55.123 0 0 0-.748-1.525l-.256-.508v-.049c-.093.125-.108.25-.124.4-.01.085-.02.18-.047.286a8.26 8.26 0 0 0-.18 1.063c-.108.88-.208 1.682-.995 1.997-1.25.515-2.18-.832-2.571-1.444-1.249-2.033-1.592-5.46-.71-8.227.068-.213.115-.44.162-.668.09-.426.177-.85.4-1.168-.048-.295-.217-.447-.383-.596a1.575 1.575 0 0 1-.228-.237c-.343-.465-.637-1.004-.906-1.518-.392-.764-.698-1.642-.995-2.493-.093-.266-.185-.53-.279-.788a5.365 5.365 0 0 1-.191-.642c-.057-.223-.112-.442-.2-.655-.232-.502-.615-1.003-.97-1.469a29.36 29.36 0 0 1-.279-.368c-.095-.137-.222-.295-.362-.472-.69-.867-1.73-2.172-1.18-3.494 1.028-2.522 4.627-.613 6.023.269.14.09.287.22.44.354.221.196.454.401.686.503.306.012.612.03.918.049.306.018.612.037.918.049l.3.07c1.037.24 2.007.464 2.834.934 4.212 2.473 6.954 4.995 9.476 9.157.342.56.576 1.15.814 1.75.136.345.274.693.435 1.041.612 1.42 1.298 2.914 2.007 4.26.09.179.173.363.257.548.214.474.43.95.747 1.338.114.163.37.25.614.333.123.042.243.083.341.132.317.163.66.311 1.006.46.536.232 1.079.467 1.54.764 1.42.882 2.792 1.934 4.04 3.012.253.226.462.502.671.778.176.233.352.465.554.667v.22c-.392.122-.784.245-1.176.343-.426.11-.828.152-1.227.195-.403.043-.802.086-1.22.196l-.163.047c-.482.139-1.044.301-1.527.345l.049.05c.236.67 1.239 1.248 2.061 1.722.287.165.552.317.754.456a11.612 11.612 0 0 1 2.547 2.473c.122.122.244.238.366.354.123.117.246.233.368.356.083.119.138.255.19.388.058.142.114.282.202.396v.073c-.214-.076-.361-.23-.508-.381-.087-.091-.174-.182-.275-.255a20.32 20.32 0 0 1-.692-.499 15.973 15.973 0 0 0-.925-.652c-.473-.3-.985-.535-1.5-.772-.495-.228-.994-.458-1.462-.746-.539-.343-1.053-.735-1.567-1.126-.465-.343-.98-1.005-1.273-1.494-.075-.117-.121-.242-.166-.363-.059-.159-.115-.31-.226-.42.036-.349.374-.436.696-.52.109-.028.215-.056.308-.093Z"/><path d="M13.181 12.508a3.878 3.878 0 0 1 1.004-.123c.078.078.175.144.272.21.15.102.3.206.39.354.054.076.089.152.124.228.044.095.088.19.17.286 0 .587-.172.98-.515 1.224l-.049.05c-.098-.197-.19-.392-.281-.588-.092-.196-.184-.392-.282-.588-.095-.134-.206-.256-.316-.379-.174-.192-.348-.386-.468-.625h-.049v-.05Z"/></g></svg>
